icons/on-the-ground-elevation-32.svg

<svg id="icons" xmlns="http://www.w3.org/2000/svg" viewBox="0 0 32 32"><defs><style>.cls-1{fill:none;}</style></defs><rect class="cls-1" width="32" height="32"/><path d="M16.5,28.8a3.3,3.3,0,1,0-3.3-3.3A3.30018,3.30018,0,0,0,16.5,28.8Zm0-5.65717A2.35715,2.35715,0,1,1,14.14288,25.5,2.35966,2.35966,0,0,1,16.5,23.14282ZM30,29v1H2V2H3V5H6V6H3V9H6v1H3v3H6v1H3v3H6v1H3v3H6v1H3v3H6v1H3v3Z"/></svg>

<svg xmlns="http://www.w3.org/2000/svg" viewBox="0 0 32 32"><path fill="none" d="M0 0h32v32H0z"/><path d="M16.5 28.8a3.3 3.3 0 1 0-3.3-3.3 3.3 3.3 0 0 0 3.3 3.3zm0-5.657a2.357 2.357 0 1 1-2.357 2.357 2.36 2.36 0 0 1 2.357-2.357zM30 29v1H2V2h1v3h3v1H3v3h3v1H3v3h3v1H3v3h3v1H3v3h3v1H3v3h3v1H3v3z"/></svg>
